img/map/pin_stroke.svg

<svg viewBox="0 0 26 26" fill="none" xmlns="http://www.w3.org/2000/svg">
<g id="icon/pin_stroke">
<g id="Vector">
<path d="M21.8635 9.62847C21.8635 4.96342 17.8951 1.18164 12.9999 1.18164C8.10462 1.18164 4.13623 4.96342 4.13623 9.62847V10.1372C4.13623 12.0038 4.74823 13.8237 5.88667 15.3426L12.9824 24.8094C12.9909 24.8209 13.0088 24.8209 13.0174 24.8094L20.1131 15.3426C21.2515 13.8237 21.8635 12.0038 21.8635 10.1372V9.62847Z" stroke="#2D383F" stroke-linecap="round" stroke-linejoin="round"/>
<path d="M11.2674 6.25049C12.3622 5.74805 13.6375 5.74805 14.7323 6.25049C15.8271 6.75293 16.6223 7.70313 16.8927 8.8321C17.1631 9.96107 16.8793 11.1459 16.1217 12.0513C15.364 12.9567 14.215 13.484 12.9999 13.484C11.7847 13.484 10.6357 12.9567 9.87807 12.0513C9.12044 11.1459 8.83665 9.96107 9.10705 8.8321C9.37744 7.70313 10.1726 6.75293 11.2674 6.25049Z" stroke="#2D383F" stroke-linecap="round" stroke-linejoin="round"/>
</g>
</g>
</svg>

<svg viewBox="0 0 26 26" fill="none" xmlns="http://www.w3.org/2000/svg"><g stroke="#2D383F" stroke-linecap="round" stroke-linejoin="round"><path d="M21.863 9.628c0-4.665-3.968-8.446-8.863-8.446S4.136 4.963 4.136 9.628v.51c0 1.866.612 3.686 1.75 5.205l7.096 9.466a.022.022 0 0 0 .035 0l7.096-9.466a8.672 8.672 0 0 0 1.75-5.206v-.509Z"/><path d="M11.267 6.25a4.17 4.17 0 0 1 3.465 0c1.095.503 1.89 1.453 2.16 2.582a3.67 3.67 0 0 1-.77 3.22c-.758.905-1.907 1.432-3.122 1.432-1.215 0-2.364-.527-3.122-1.433a3.67 3.67 0 0 1-.771-3.219c.27-1.129 1.066-2.08 2.16-2.582Z"/></g></svg>
